X: 71
T: Den røde Lue
B:[[Notböcker/Melodier til gamle danske Almuedanse for Violin solo]]
O:Danmark
Z:Søren Bak Vestergaard
M: 2/4
L: 1/8
K: G
!upbow!D|G2 (3(GFG)|BGBG|d2 (3(dcd)|BGBd|g2 (3(gfg)|a2 a2|fdef|1 g2 z:|2 g2 z2\
|:!downbow!g2 (3(gfg)|b2 g2|d2 (3(d^cd)|e2 =c2|B2 (3(BAB)|d2 B2|GBAF|1 G2 z2:|2 G2 z\
|:!upbow!A|ceAc|Bd/B/ GB|Ac/A/ FA|GBdg|ceAc|Bd/B/ GB|Ac/A/ FA|G2 z:|

